src/assets/icons/remotes/iclouddrive.svg

<svg width="24" height="24" viewBox="0 0 24 24" fill="currentColor" xmlns="http://www.w3.org/2000/svg">
    <path
        d="M13.4683 5.41016C12.5053 5.41215 11.5602 5.677 10.73 6.1775C9.89979 6.678 9.21444 7.39612 8.74431 8.2581C8.33965 8.05599 7.89557 7.95065 7.44548 7.95C6.74003 7.95191 6.05817 8.21076 5.52152 8.68039C4.98487 9.15003 4.62832 9.7999 4.51546 10.5141C3.77028 10.8341 3.13395 11.3729 2.6864 12.0627C2.23884 12.7525 2.00004 13.5626 2 14.3912C2.00105 15.5056 2.43358 16.574 3.20248 17.3615C3.97138 18.149 5.01372 18.5911 6.10033 18.5905C6.27228 18.5889 6.44397 18.5762 6.61437 18.5525H18.0074C18.0673 18.5569 18.1272 18.5599 18.1872 18.5614C18.2443 18.5598 18.3014 18.5568 18.3584 18.5525H18.6313V18.5317C19.5589 18.4192 20.4142 17.9599 21.0351 17.2408C21.656 16.5217 21.9993 15.5928 22 14.6303V14.6227C21.9978 13.7086 21.6866 12.8238 21.1198 12.1206C20.553 11.4174 19.7661 10.9397 18.8945 10.7697C18.8428 9.32959 18.2483 7.96621 17.2362 6.96656C16.2241 5.96692 14.8734 5.40897 13.4683 5.41016Z" />
</svg>

<svg xmlns="http://www.w3.org/2000/svg" width="24" height="24" fill="currentColor" viewBox="0 0 24 24"><path d="M13.468 5.41a5.3 5.3 0 0 0-2.738.768 5.5 5.5 0 0 0-1.986 2.08 2.9 2.9 0 0 0-1.299-.308 2.93 2.93 0 0 0-1.923.73 3.07 3.07 0 0 0-1.007 1.834 4.1 4.1 0 0 0-1.829 1.549 4.28 4.28 0 0 0 .516 5.298 4.05 4.05 0 0 0 2.898 1.23q.258-.003.514-.039h11.393q.09.007.18.01.085-.003.171-.01h.273v-.02a3.78 3.78 0 0 0 2.404-1.291A4 4 0 0 0 22 14.63v-.008a4 4 0 0 0-.88-2.502 3.8 3.8 0 0 0-2.226-1.351 5.63 5.63 0 0 0-1.658-3.803 5.36 5.36 0 0 0-3.768-1.557"/></svg>
